X:3
T:March. JGi.003
S:Joshua Gibbons MS,1823,Tealby,Lincs.
M:4/4
K:C
L:1/8
Q:1/4=120
R:March
O:Tealby,Lincolnshire
Z:VMP/R.Greig, 2009
K:D
A|dfed|BdA>F|GEAc|dedA|ffed|BdA>E|GEAc|ddd:|
f|f>f ff|fffa|gfea|f/g/f/e/ dA|dfed|BdA>F|GEAc|ddd|]

